!!!COM: Anon.
!!!OTL: O que tens o/ Juliana
!!!OTL: Romanceiro Folclorico do Brasil
!!!CNT: Brasil
!!!OCY: Brasil
!!!ODT: <1971///
!!!PSR: Irmaos Vitale
!!!PSP: Sao Paulo, Brasil
!!!PDT: 1948///
!!!PPE: Rossini Tavares de Lima
!!!PPG: pages 8-9
!! Romance: Juliana E D. Jorge
!! Place: Joanopolis, Sao Paulo, Brasil
**kern
*clefG2
*k[b-e-a-]
*M3/4
*MM100
8ee-
8dd
=
4cc
4g
8b-
8a-
=
4g
4f
8dd
8cc
=
4bn
4g
8an
8b
=
2cc
8g
8g
=
4ff
4dd
8b-
8g
=
4ee-
4cc
8bn
8cc
=
4dd
8ff
8ff
8an
8bn
=
2cc
==
*-
